X: 6
T:Bonny Green Garters (Bampton)
M:6/8
L:1/8
O:England; Oxfordshire; Bampton.
B:Lionel Bacon, A Handbook of Morris Dances
Z:http://www.themorrisring.org/music/handbook-morris-dances
P:A6
K:D
P:A
|:A|d>cd AFA|B>AB ABc|d>cd efg|1faf e2:|2f3 d2||

